plasma/desktoptheme/Monochrome/icons/veracrypt.svg

<svg width="32" height="32" version="1.1" xmlns="http://www.w3.org/2000/svg">
 <g id="22-22-veracrypt" transform="translate(32,10)">
  <rect width="22" height="22" style="fill:#000000;opacity:.00100002;stroke-width:1.191676"/>
  <g>
   <path d="m2 3 4.4492188 16 0.2910156-0.955078 1.6152344-7.029297h0.085937l-2.1406246-8.015625z" style="fill:#ffffff;opacity:.25"/>
   <path d="m12.035877 11.019838-3.6795694-0.0049-1.6153846 7.029384-0.2923077 0.955077 4.1588307-7e-6c1.687754-7.318154 1.4288-7.980154 1.4288-7.980154z" style="fill:#ffffff;opacity:.15"/>
   <path d="M 11.038461,3.0000005 8.4394615,11.015539 10.6,19 h 8.631384 L 17.38523,15 h -3.7 L 12.562539,11.015539 13.992923,7 h 3.392307 l 1.846154,-3.9999995 z" style="fill:#aaaaac"/>
  </g>
 </g>
 <g id="veracrypt">
  <rect width="32" height="32" style="fill:#000000;opacity:.00100002;stroke-width:2.2169709"/>
  <g>
   <rect transform="matrix(0,-1,-1,0,0,0)" x="-30" y="-30" width="28" height="28" rx="1.5" ry="1.5" style="fill:#4f4f4f"/>
   <path d="m5 8 6 20h15l-2-5h-4.5l-1.5-4.5 1.5-5.5h4.5l2-5h-10l-2.992 10.471-3.008-10.471z" style="opacity:.2"/>
   <path d="m3.5 2c-0.831 0-1.5 0.669-1.5 1.5v1c0-0.831 0.669-1.5 1.5-1.5h25c0.831 0 1.5 0.669 1.5 1.5v-1c0-0.831-0.669-1.5-1.5-1.5z" style="fill:#ffffff;opacity:.1"/>
   <path d="m2 28.5v1c0 0.831 0.669 1.5 1.5 1.5h25c0.831 0 1.5-0.669 1.5-1.5v-1c0 0.831-0.669 1.5-1.5 1.5h-25c-0.831 0-1.5-0.669-1.5-1.5z" style="opacity:.2"/>
   <path d="m5 7 5-8e-7 5.269 18.335 0.356 1.665h-4.625z" style="fill:#0198c4"/>
   <path d="m17.344 17.505-4.119-5e-3 -2.225 9.5h4.5c2.0569-8.9187 1.8443-9.4947 1.8443-9.4947z" style="fill:#4dbac2"/>
   <path d="m16 7-3 10.5 2.625 9.5h10.375l-2-5h-4.5l-1.5-4.5 1.5-5.5h4.5l2-5z" style="fill:#06b788"/>
  </g>
 </g>
</svg>

<svg xmlns="http://www.w3.org/2000/svg" width="32" height="32" version="1.1">
 <g id="22-22-veracrypt" transform="translate(32,10)">
  <rect width="22" height="22" x="0" y="0" style="opacity:0.001"/>
  <path d="m 2,3 4.4492188,16 0.2910156,-0.955078 1.6152344,-7.029297 h 0.085937 L 6.3007812,3 Z" style="opacity:0.3;fill:#aaaaac"/>
  <path d="m 12.035877,11.019838 -3.6795694,-0.0049 -1.6153846,7.029384 -0.2923077,0.955077 4.1588307,-7e-6 c 1.687754,-7.318154 1.4288,-7.980154 1.4288,-7.980154 z" style="opacity:0.15;fill:#aaaaac"/>
  <path d="M 11.038461,3.0000005 8.4394615,11.015539 10.6,19 h 8.631384 L 17.38523,15 h -3.7 L 12.562539,11.015539 13.992923,7 h 3.392307 l 1.846154,-3.9999995 z" style="fill:#aaaaac"/>
 </g>
 <g id="veracrypt">
  <rect width="32" height="32" x="0" y="0" style="opacity:0.001"/>
  <rect width="28" height="28" x="-30" y="-30" rx="1.5" ry="1.5" transform="matrix(0,-1,-1,0,0,0)" style="fill:#4f4f4f"/>
  <path d="m 5,8 6,20 H 26 L 24,23 H 19.5 L 18,18.5 19.5,13 H 24 L 26,8 H 16 L 13.008,18.471 10,8 Z" style="opacity:0.2"/>
  <path d="M 3.5,2 C 2.669,2 2,2.669 2,3.5 v 1 C 2,3.669 2.669,3 3.5,3 h 25 C 29.331,3 30,3.669 30,4.5 v -1 C 30,2.669 29.331,2 28.5,2 Z" style="opacity:0.1;fill:#ffffff"/>
  <path d="m 2,28.5 v 1 C 2,30.331 2.669,31 3.5,31 h 25 c 0.831,0 1.5,-0.669 1.5,-1.5 v -1 C 30,29.331 29.331,30 28.5,30 H 3.5 C 2.669,30 2,29.331 2,28.5 Z" style="opacity:0.2"/>
  <path d="m 5,7 5,-8e-7 5.269,18.3349998 0.356,1.665 H 11 Z" style="fill:#0198c4"/>
  <path d="M 17.344,17.505 13.225,17.5 11,27 h 4.5 c 2.0569,-8.9187 1.8443,-9.4947 1.8443,-9.4947 z" style="fill:#4dbac2"/>
  <path d="M 16,7 13,17.5 15.625,27 H 26 L 24,22 H 19.5 L 18,17.5 19.5,12 H 24 l 2,-5 z" style="fill:#06b788"/>
 </g>
</svg>
